X: 22940
T: Larry The Beer Drinker
R: jig
M: 6/8
K: Dmajor
D2(F {A}F)EF|AFE ~F2E|D2(F {A}F)EF|AFD ~E2F|
D2(F {A}F)EF|AFA {c}d2(c|{d}c)BA {c}BAF|1 AF(E {G}E)FE:|2 AF(E {G}E)FA||
|:ecA ABA|ecA ~A2f|ecA Ac/d/e|fdB ~B2f|
ecA cdB|Ac/d/e ^gaf|ecA {c}BAF|1 AF(E {F}E) z f:|2 AF(E {G}E)FA||
|:d2(F {G}F)EF|AFE ~F2(c|d) z (F {G}F)EF|AFD EFA|
cdF FGE|DFA cd(c|{d}c)BA {c}BAF|1 AF(E {G}E)FA:|2 AF(E {G}E)FE||D6||

